X: 1039
T: The Flitch of Bacon
R:double jig
N:"collected by Fielding"
B:O'Neill's 1039
Z:Transcribed by henrik.norbeck@mailbox.swipnet.se
M:6/8
L:1/8
K:G
DGG BAB|cAG FGA|DGG BAB|cAF G2 G|
DGG BAB|cAG FGA|fed f2 d|cAF G2 z:|
def gag|fed g2 B|def gag|fed cAF|
def gag|fed g2 d|fed f2 d|cAF G2 z:|


